Catalina-light/actions/16/stock_xfburn-audio-cd.svg

<svg xmlns="http://www.w3.org/2000/svg" width="16" height="16" version="1.1" viewBox="0 0 16 16">
 <defs>
  <style id="current-color-scheme" type="text/css">
   .ColorScheme-Text { color:#5c616c; } .ColorScheme-Highlight { color:#5294e2; }
  </style>
 </defs>
 <path style="fill:currentColor" class="ColorScheme-Text" d="m 7.9999998,-9.9999999e-8 a 8,8 0 0 0 -7.99999995,8 A 8,8 0 0 0 7.9999999,16 8,8 0 0 0 16,7.9999999 a 8,8 0 0 0 -8.0000002,-8 z M 5.9999999,2.9999999 H 12 V 11 a 2,2 0 0 1 -2.0000001,2 2,2 0 0 1 -2,-2 2,2 0 0 1 2,-2.0000001 A 2,2 0 0 1 11,9.2695309 V 5 H 6.9999999 v 6 a 2,2 0 0 1 -2,2 2,2 0 0 1 -2,-2 2,2 0 0 1 2,-2.0000001 2,2 0 0 1 1,0.269531 V 5 Z"/>
</svg>

<svg width="16" height="16" version="1.1" viewBox="0 0 16 16" xmlns="http://www.w3.org/2000/svg">
<defs>
<style id="current-color-scheme" type="text/css">.ColorScheme-Text { color:#5c616c; } .ColorScheme-Highlight { color:#5294e2; }</style>
</defs>
<path class="ColorScheme-Text" d="m8-1e-7a8 8 0 0 0-8 8 8 8 0 0 0 8 8 8 8 0 0 0 8-8 8 8 0 0 0-8-8zm-2 3h6v8a2 2 0 0 1-2 2 2 2 0 0 1-2-2 2 2 0 0 1 2-2 2 2 0 0 1 1 0.26953v-4.2695h-4v6a2 2 0 0 1-2 2 2 2 0 0 1-2-2 2 2 0 0 1 2-2 2 2 0 0 1 1 0.26953v-4.2695z" fill="currentColor"/>
</svg>
